T: Number Five March, The
M: 4/4
L: 1/8
K: Dmaj
d2 D2 FA A2 | dcde f2 e2 | d2 D2 FAAF | G2 E2 E2 (3ABc |d2 D2 FA A2 | dcde f2 e2 | d2 D2 FAAF | E2 D2 D2 :| gf e2 d2 A2 | BcdB A2 f2 | gf e2 d2 cd | e4 e2 f2 |gf e2 d2 A2 | BcdB A2 D2 | F2 AF EDEF | D4 D2 :|
</html>
